X:1
T:Cecilia Waltz
T:Cecilia Waltz
T:Dedication Miss Mary S. Condrey
T:Anonymous
T:New York: Firth and Hall, 1841 - by IMSLP - Public Domain
T:New York: Firth and Hall, 1841 - by IMSLP - Public Domain
C:Anonymous
Z:New York: Firth and Hall, 1841 - by IMSLP - Public Domain
%%score { ( 1 3 ) | 2 }
L:1/8
M:3/4
K:D
V:1 treble nm="Piano" snm="Pno."
V:3 treble 
V:2 bass 
V:1
 z!p![Q:1/4=85] [dfa] | [dfa]2 [^e^g]2 [fa]2 | [df]4 [df]2 | [df]2 [c^e]2 [df]2 | d2 z2 d2 | %5
 ABcde=f | ^fba^gab | f2 z2 a2 |{b} a^gabc'd' | f2 z2 f2 |{g} f=f^fg^ga | d4 z d | c2 z2 e2 | %13
 ^G2 z2 B2 | A4 A2 |1 A2 z2 :|2 A2 z2 z2 |:!f! g6 | .g.f.e.d.c.B | A2 z2 BA | ^G2 z2 cB | %21
 A2 z2 fe | G2 z2 ba | =f6 | ^f2 z2 f2 | a6 | .g.f.e.d.c.B | A4 cd | B4 fg | c4 fa | .g.f.e.d.c.B | %31
 A2 z2 c2 | B2 z2 e2 | ^G2 z2 B2 | A2 AcB^G | A2 z2 z2 ::[K:G] [Dd]2 [Gg]2 [Aa]2 | [Bb]6 | %38
 !wedge![Bb]!wedge![ec']!wedge![Aa]!wedge![Bb]!wedge![Ff]!wedge![Aa] | [Gg] z [Ee]4 | %40
 [Dd]2 [Gg]2 [Aa]2 | [Bb]6 | [Bb]2 [Bb][dd'][Gg][Bb] | [Aa]6 | [Dd]2 [Gg]2 [Aa]2 | [Bb]6 | %46
 [Bb][ec'][Aa][Bb][Ff][Aa] | [Gg] z [cc']4 | [cc'][Bb][Aa][Gg][Ff][Ee] | [Dd]4 [Ff]2 | %50
 [Ee]2 z2 [Bb]2 | [^C^c]2 z2 [Ee]2 | [Dd]2 [Ff]2 [Ee]2 | [Dd]2 z2 ::[K:A] z [CE] | %55
 [CE]2 [^B,^D]2 [CE]2 | [CA] z [Ac]4 | e2 [Bd]2 [^GB]2 | [D^G]4 A2 | B2 =cB^AB | cA E4 | %61
 [CE]2 [^B,^D]2 [CE]2 | [EA]2 [Ac]4 | e^dfe (3(dB^G) | A4 z2 :| %65
V:2
 z2 | [D,,D,]2 [A,DF]2 [A,DF]2 | [D,,D,]2 [A,DF]2 [A,DF]2 | [D,,D,]2 [A,DF]2 [A,DF]2 | %4
 [D,,D,]2 [A,DF]2 [A,DF]2 | [C,,C,]2 A,2 A,2 | [D,,D,]2 [F,A,D]2 [F,A,D]2 | %7
 [D,,D,]2 [F,A,D]2 [F,A,D]2 | [D,,D,]2 [B,DF]2 [B,DF]2 | [D,,D,]2 [B,DF]2 [B,DF]2 | %10
 [F,,F,]2 [E,G,C]2 [E,G,C]2 | [B,,,B,,]2 [D,F,B,]2 [D,F,B,]2 | [E,,E,]2 [A,C]2 [A,C]2 | %13
 [E,,E,]2 [^G,D]2 [G,D]2 | .A,,.A,.^G,.A,.E,.C, |1 [A,,C,E,A,]2 z2 :|2 [A,,C,E,A,]2 z2 z2 |: %17
 .A,,.C,.E,.G,.A,.C | .E.D.C.B,.A,.G, | F,2 [D,F,B,]2 [D,F,B,]2 | [E,,E,]2 [B,DE]2 [B,DE]2 | %21
 [A,,,A,,]2 [A,CE=G]2 [A,CE=G]2 | [B,,B,]2 [F,B,D]2 [F,B,D]2 | [^G,,^G,]2 [G,B,D=F]2 [G,B,DF]2 | %24
 [A,,A,]2 [A,D^F]2 [A,D^F]2 |[K:treble] .A,.D.F.A.c.d | edcBAG | %27
[K:bass] [F,,F,]2 [F,A,D]2 [F,A,D]2 | [G,,G,]2 [G,B,E]2 [G,B,E]2 | [G,,G,]2 [A,CEG]2 [A,CEG]2 | %30
 .E.D.C.B,.A,.G, | A,2 [E,A,C]2 [E,A,C]2 | [D,,D,]2 [D,F,B,]2 [D,F,B,]2 | %33
 [E,,E,]2 [^G,B,D]2 [G,B,D]2 | [A,D]2 z2 [E,B,D]2 | [A,D]2 z2 z2 ::[K:G] z6 | G,GB,GDG | %38
 [D,D]2 [DF]2 [DF]2 | [G,,G,]2 [^A,^CE]2 [A,CE]2 | [G,B,D]2 z2 z2 | G,GB,GDG | %42
 [G,,G,]2 [B,DG]2 [B,DG]2 | [D,,D,]2 [DF]2 [DF]2 | z6 | G,GB,GDG | [D,D]2 [DF]2 [DF]2 | %47
 [G,,G,]2 [G,CE]2 [G,CE]2 | EDCB,A,G, | F,2 [A,D]2 [A,D]2 | [G,,G,]2 [B,E]2 [B,E]2 | %51
 [A,,,A,,]2 [A,CE]2 [A,CE]2 | [DF]2 z2 [A,^CG]2 | [DF]2 z2 ::[K:A] z2 | [A,,A,]2 [A,C]2 [A,C]2 | %56
 [A,,A,]2 [A,C]2 [A,C]2 | [^G,,^G,]2 [B,DF]2 [B,DF]2 | [E,,E,]2 [B,DF]2 [B,DF]2 | %59
 [E,,E,]2 [B,DF]2 [B,DF]2 | [A,,A,]2 [A,C]2 [A,C]2 | [A,,A,]2 [A,C]2 [A,C]2 | %62
 [A,,A,]2 [A,C]2 [A,C]2 | [E,,E,]2 [B,DF]2 [B,DF]2 | [A,C]4 z2 :| %65
V:3
 x2 | x6 | x6 | x6 | x6 | x2 [EG]2 [CG]2 | x6 | x6 | x6 | x6 | x6 | x6 | x6 | x6 | x6 |1 x4 :|2 %16
 x6 |: x6 | x6 | x6 | x6 | x6 | x6 | x6 | x6 | x6 | x6 | x6 | x6 | x6 | x6 | x6 | x6 | x6 | x6 | %35
 x6 ::[K:G] x6 | x6 | x6 | x6 | x6 | x6 | x6 | x6 | x6 | x6 | x6 | x6 | x6 | x6 | x6 | x6 | x6 | %53
 x4 ::[K:A] x2 | x6 | x6 | x6 | x6 | x6 | x6 | x6 | x6 | x6 | x6 :| %65

